icons/svg/no.svg

﻿<?xml version="1.0" encoding="utf-8"?>
<!DOCTYPE svg PUBLIC "-//W3C//DTD SVG 1.1//EN" "http://www.w3.org/Graphics/SVG/1.1/DTD/svg11.dtd">
<svg xmlns="http://www.w3.org/2000/svg" xmlns:xlink="http://www.w3.org/1999/xlink" version="1.1" baseProfile="full" width="24" height="24" viewBox="0 0 24.00 24.00" enable-background="new 0 0 24.00 24.00" xml:space="preserve">
	<path fill="#000000" fill-opacity="1" stroke-width="0.2" stroke-linejoin="round" d="M 12,2C 17.5228,2 22,6.47716 22,12C 22,17.5228 17.5228,22 12,22C 6.47715,22 2,17.5228 2,12C 2,6.47716 6.47715,2 12,2 Z M 12,4C 10.1513,4 8.44904,4.62708 7.09436,5.68015L 18.3199,16.9056C 19.3729,15.551 20,13.8487 20,12C 20,7.58173 16.4183,4 12,4 Z M 4,12C 4,16.4183 7.58172,20 12,20C 13.8487,20 15.551,19.3729 16.9056,18.3199L 5.68014,7.09436C 4.62708,8.44904 4,10.1513 4,12 Z "/>
</svg>

<svg xmlns="http://www.w3.org/2000/svg" version="1.1" baseProfile="full" width="24" height="24" viewBox="0 0 24.00 24.00" xml:space="preserve"><path fill="#000" fill-opacity="1" stroke-width=".2" stroke-linejoin="round" d="M12 2c5.523 0 10 4.477 10 10s-4.477 10-10 10S2 17.523 2 12 6.477 2 12 2zm0 2c-1.85 0-3.55.627-4.906 1.68L18.32 16.906C19.373 15.55 20 13.85 20 12c0-4.418-3.582-8-8-8zm-8 8c0 4.418 3.582 8 8 8 1.85 0 3.55-.627 4.906-1.68L5.68 7.094C4.627 8.45 4 10.15 4 12z"/></svg>
